exported-svg/compass.svg

<svg height="24" viewBox="0 0 24 24" width="24" xmlns="http://www.w3.org/2000/svg"><path d="m11.5 23c-5.79898987 0-10.5-4.7010101-10.5-10.5 0-5.79898987 4.70101013-10.5 10.5-10.5 5.7989899 0 10.5 4.70101013 10.5 10.5 0 5.7989899-4.7010101 10.5-10.5 10.5zm0-1c5.2467051 0 9.5-4.2532949 9.5-9.5 0-5.24670512-4.2532949-9.5-9.5-9.5-5.24670512 0-9.5 4.25329488-9.5 9.5 0 5.2467051 4.25329488 9.5 9.5 9.5zm4.0818861-14.21434165c.390879-.130293.7627486.24157652.6324555.63245553l-2.12 6.36000002c-.0497675.1493025-.1669252.2664602-.3162277.3162277l-6.36000002 2.12c-.39087901.1302931-.76274853-.2415765-.63245553-.6324555l2.12-6.36c.0497675-.1493025.16692527-.26646025.31622777-.31622775zm-5.80660139 2.98962635-1.72471529 5.1741459 5.17414588-1.7247153 1.7247153-5.17414588z"/></svg>

<?xml version="1.0" encoding="UTF-8"?>
<svg width="24px" height="24px" viewBox="0 0 24 24" version="1.1" xmlns="http://www.w3.org/2000/svg" xmlns:xlink="http://www.w3.org/1999/xlink">
    <!-- Generator: Sketch 55.2 (78181) - https://sketchapp.com -->
    <title>compass</title>
    <desc>Created with Sketch.</desc>
    <g id="compass" stroke="none" stroke-width="1" fill="none" fill-rule="evenodd">
        <path d="M11.5,23 C17.2989899,23 22,18.2989899 22,12.5 C22,6.70101013 17.2989899,2 11.5,2 C5.70101013,2 1,6.70101013 1,12.5 C1,18.2989899 5.70101013,23 11.5,23 Z M11.5,22 C6.25329488,22 2,17.7467051 2,12.5 C2,7.25329488 6.25329488,3 11.5,3 C16.7467051,3 21,7.25329488 21,12.5 C21,17.7467051 16.7467051,22 11.5,22 Z" id="Oval" fill="#000000" fill-rule="nonzero"></path>
        <path d="M15.5818861,7.78565835 C15.9727651,7.65536535 16.3446347,8.02723487 16.2143416,8.41811388 L14.0943416,14.7781139 C14.0445741,14.9274164 13.9274164,15.0445741 13.7781139,15.0943416 L7.41811388,17.2143416 C7.02723487,17.3446347 6.65536535,16.9727651 6.78565835,16.5818861 L8.90565835,10.2218861 C8.95542585,10.0725836 9.07258362,9.95542585 9.22188612,9.90565835 L15.5818861,7.78565835 Z M9.77528471,10.7752847 L8.05056942,15.9494306 L13.2247153,14.2247153 L14.9494306,9.05056942 L9.77528471,10.7752847 Z" id="Shape" fill="#000000" fill-rule="nonzero"></path>
    </g>
</svg>
